dist/images/icons/filter-btn.svg

<svg width="12" height="9" viewBox="0 0 12 9" fill="none" xmlns="http://www.w3.org/2000/svg">
<path d="M9.24967 5.04166H2.74967C2.42467 5.04166 2.20801 4.825 2.20801 4.49999C2.20801 4.17499 2.42467 3.95833 2.74967 3.95833H9.24967C9.57467 3.95833 9.79134 4.17499 9.79134 4.49999C9.79134 4.825 9.57467 5.04166 9.24967 5.04166ZM7.62467 8.29166H4.37467C4.04967 8.29166 3.83301 8.075 3.83301 7.75C3.83301 7.42499 4.04967 7.20833 4.37467 7.20833H7.62467C7.94967 7.20833 8.16634 7.42499 8.16634 7.75C8.16634 8.075 7.94967 8.29166 7.62467 8.29166ZM10.8747 1.79166H1.12467C0.799674 1.79166 0.583008 1.57499 0.583008 1.24999C0.583008 0.924995 0.799674 0.708328 1.12467 0.708328H10.8747C11.1997 0.708328 11.4163 0.924995 11.4163 1.24999C11.4163 1.57499 11.1997 1.79166 10.8747 1.79166Z" fill="#2b2a29"/>
</svg>

<svg width="12" height="9" fill="none" xmlns="http://www.w3.org/2000/svg"><path d="M9.25 5.042h-6.5c-.325 0-.542-.217-.542-.542 0-.325.217-.542.542-.542h6.5c.325 0 .541.217.541.542 0 .325-.216.542-.541.542zm-1.625 3.25h-3.25c-.325 0-.542-.217-.542-.542 0-.325.217-.542.542-.542h3.25c.325 0 .541.217.541.542 0 .325-.216.542-.541.542zm3.25-6.5h-9.75c-.325 0-.542-.217-.542-.542 0-.325.217-.542.542-.542h9.75c.325 0 .541.217.541.542 0 .325-.216.542-.541.542z" fill="#2b2a29"/></svg>
